src/pos-icons/map-marker-left.svg

<svg height="24" viewBox="0 0 24 24" width="24" xmlns="http://www.w3.org/2000/svg"><path d="m15 11.5c-1.38 0-2.5-1.12-2.5-2.5s1.12-2.5 2.5-2.5 2.5 1.12 2.5 2.5-1.12 2.5-2.5 2.5m-7-2.5c0 5.25 7 13 7 13s7-7.75 7-13c0-3.87-3.13-7-7-7s-7 3.13-7 7m-2-2-5 5 5 5z"/></svg>

<?xml version="1.0" encoding="UTF-8"?><!DOCTYPE svg PUBLIC "-//W3C//DTD SVG 1.1//EN" "http://www.w3.org/Graphics/SVG/1.1/DTD/svg11.dtd"><svg xmlns="http://www.w3.org/2000/svg" xmlns:xlink="http://www.w3.org/1999/xlink" version="1.1" id="mdi-map-marker-left" width="24" height="24" viewBox="0 0 24 24"><path d="M15 11.5C13.62 11.5 12.5 10.38 12.5 9S13.62 6.5 15 6.5 17.5 7.62 17.5 9 16.38 11.5 15 11.5M8 9C8 14.25 15 22 15 22S22 14.25 22 9C22 5.13 18.87 2 15 2S8 5.13 8 9M6 7L1 12L6 17V7Z" /></svg>
